src/activities/babymatch/resource/images/raquette.svg

<?xml version="1.0" encoding="UTF-8" standalone="no"?>
<svg
   xmlns:dc="http://purl.org/dc/elements/1.1/"
   xmlns:cc="http://creativecommons.org/ns#"
   xmlns:rdf="http://www.w3.org/1999/02/22-rdf-syntax-ns#"
   xmlns:svg="http://www.w3.org/2000/svg"
   xmlns="http://www.w3.org/2000/svg"
   version="1.0"
   id="svg1065"
   width="100"
   height="100"
   xml:space="preserve"><metadata
     id="metadata2193"><rdf:RDF><cc:Work
         rdf:about=""><dc:format>image/svg+xml</dc:format><dc:type
           rdf:resource="http://purl.org/dc/dcmitype/StillImage" /><dc:title></dc:title><dc:date>2021</dc:date><dc:creator><cc:Agent><dc:title>Timothée Giet</dc:title></cc:Agent></dc:creator><cc:license
           rdf:resource="http://creativecommons.org/licenses/by-sa/4.0/" /></cc:Work><cc:License
         rdf:about="http://creativecommons.org/licenses/by-sa/4.0/"><cc:permits
           rdf:resource="http://creativecommons.org/ns#Reproduction" /><cc:permits
           rdf:resource="http://creativecommons.org/ns#Distribution" /><cc:requires
           rdf:resource="http://creativecommons.org/ns#Notice" /><cc:requires
           rdf:resource="http://creativecommons.org/ns#Attribution" /><cc:permits
           rdf:resource="http://creativecommons.org/ns#DerivativeWorks" /><cc:requires
           rdf:resource="http://creativecommons.org/ns#ShareAlike" /></cc:License></rdf:RDF></metadata><defs
     id="defs1067" /><path
     id="path925-6-3"
     d="m 47.262073,72.293777 h 5.475853 v 20.764832 3.114725 c -1.254637,1.129646 -4.25708,1.026728 -5.475853,0 v -3.114725 z"
     style="fill:#3e3122;fill-opacity:1;stroke:none;stroke-width:1.19218898px;stroke-linecap:butt;stroke-linejoin:miter;stroke-opacity:1" /><path
     id="path1023"
     d="M 38.613992,10.263187 H 62.421098"
     style="fill:none;stroke:#6e6e6e;stroke-width:0.51754582;stroke-linecap:butt;stroke-linejoin:miter;stroke-miterlimit:4;stroke-dasharray:none;stroke-opacity:1" /><path
     id="path1025"
     d="M 36.543809,12.33337 H 63.45619"
     style="fill:none;stroke:#6e6e6e;stroke-width:0.51754582;stroke-linecap:butt;stroke-linejoin:miter;stroke-miterlimit:4;stroke-dasharray:none;stroke-opacity:1" /><path
     id="path1027"
     d="M 34.473626,14.403554 H 64.491282"
     style="fill:none;stroke:#6e6e6e;stroke-width:0.51754582;stroke-linecap:butt;stroke-linejoin:miter;stroke-miterlimit:4;stroke-dasharray:none;stroke-opacity:1" /><path
     id="path1029"
     d="M 33.438534,16.473737 H 65.526373"
     style="fill:none;stroke:#6e6e6e;stroke-width:0.51754582;stroke-linecap:butt;stroke-linejoin:miter;stroke-miterlimit:4;stroke-dasharray:none;stroke-opacity:1" /><path
     id="path1031"
     d="M 32.403443,18.54392 H 67.596556"
     style="fill:none;stroke:#6e6e6e;stroke-width:0.51754582;stroke-linecap:butt;stroke-linejoin:miter;stroke-miterlimit:4;stroke-dasharray:none;stroke-opacity:1" /><path
     id="path1033"
     d="M 31.368351,20.614103 H 67.596556"
     style="fill:none;stroke:#6e6e6e;stroke-width:0.51754582;stroke-linecap:butt;stroke-linejoin:miter;stroke-miterlimit:4;stroke-dasharray:none;stroke-opacity:1" /><path
     id="path1035"
     d="M 31.368351,22.684286 H 68.631648"
     style="fill:none;stroke:#6e6e6e;stroke-width:0.51754582;stroke-linecap:butt;stroke-linejoin:miter;stroke-miterlimit:4;stroke-dasharray:none;stroke-opacity:1" /><path
     id="path1037"
     d="M 31.368351,24.754469 H 68.631648"
     style="fill:none;stroke:#6e6e6e;stroke-width:0.51754582;stroke-linecap:butt;stroke-linejoin:miter;stroke-miterlimit:4;stroke-dasharray:none;stroke-opacity:1" /><path
     id="path1039"
     d="M 31.368351,26.824653 H 68.631648"
     style="fill:none;stroke:#6e6e6e;stroke-width:0.51754582;stroke-linecap:butt;stroke-linejoin:miter;stroke-miterlimit:4;stroke-dasharray:none;stroke-opacity:1" /><path
     id="path1041"
     d="M 31.368351,28.894836 H 68.631648"
     style="fill:none;stroke:#6e6e6e;stroke-width:0.51754582;stroke-linecap:butt;stroke-linejoin:miter;stroke-miterlimit:4;stroke-dasharray:none;stroke-opacity:1" /><path
     id="path1043"
     d="M 31.368351,30.965019 H 68.631648"
     style="fill:none;stroke:#6e6e6e;stroke-width:0.51754582;stroke-linecap:butt;stroke-linejoin:miter;stroke-miterlimit:4;stroke-dasharray:none;stroke-opacity:1" /><path
     id="path1045"
     d="M 31.368351,33.035202 H 68.631648"
     style="fill:none;stroke:#6e6e6e;stroke-width:0.51754582;stroke-linecap:butt;stroke-linejoin:miter;stroke-miterlimit:4;stroke-dasharray:none;stroke-opacity:1" /><path
     id="path1047"
     d="M 31.368351,35.105385 H 68.631648"
     style="fill:none;stroke:#6e6e6e;stroke-width:0.51754582;stroke-linecap:butt;stroke-linejoin:miter;stroke-miterlimit:4;stroke-dasharray:none;stroke-opacity:1" /><path
     id="path1049"
     d="M 32.403443,37.175568 H 67.596556"
     style="fill:none;stroke:#6e6e6e;stroke-width:0.51754582;stroke-linecap:butt;stroke-linejoin:miter;stroke-miterlimit:4;stroke-dasharray:none;stroke-opacity:1" /><path
     id="path1051"
     d="M 33.438534,39.245752 H 66.561465"
     style="fill:none;stroke:#6e6e6e;stroke-width:0.51754582;stroke-linecap:butt;stroke-linejoin:miter;stroke-miterlimit:4;stroke-dasharray:none;stroke-opacity:1" /><path
     id="path1053"
     d="M 34.473626,41.315935 H 65.526373"
     style="fill:none;stroke:#6e6e6e;stroke-width:0.51754582;stroke-linecap:butt;stroke-linejoin:miter;stroke-miterlimit:4;stroke-dasharray:none;stroke-opacity:1" /><path
     id="path1055"
     d="M 35.508717,43.386118 H 64.491282"
     style="fill:none;stroke:#6e6e6e;stroke-width:0.51754582;stroke-linecap:butt;stroke-linejoin:miter;stroke-miterlimit:4;stroke-dasharray:none;stroke-opacity:1" /><path
     id="path1057"
     d="M 36.543809,45.456301 H 62.421098"
     style="fill:none;stroke:#6e6e6e;stroke-width:0.51754582;stroke-linecap:butt;stroke-linejoin:miter;stroke-miterlimit:4;stroke-dasharray:none;stroke-opacity:1" /><path
     id="path1065"
     d="M 62.421098,11.298279 V 45.456301"
     style="fill:none;stroke:#6e6e6e;stroke-width:0.51754582;stroke-linecap:butt;stroke-linejoin:miter;stroke-miterlimit:4;stroke-dasharray:none;stroke-opacity:1" /><path
     id="path1069"
     d="M 60.350915,9.2280952 V 48.561576"
     style="fill:none;stroke:#6e6e6e;stroke-width:0.51754582;stroke-linecap:butt;stroke-linejoin:miter;stroke-miterlimit:4;stroke-dasharray:none;stroke-opacity:1" /><path
     id="path1071"
     d="M 58.280732,7.157912 V 49.596667"
     style="fill:none;stroke:#6e6e6e;stroke-width:0.51754582;stroke-linecap:butt;stroke-linejoin:miter;stroke-miterlimit:4;stroke-dasharray:none;stroke-opacity:1" /><path
     id="path1073"
     d="M 56.210549,6.1228204 V 50.631759"
     style="fill:none;stroke:#6e6e6e;stroke-width:0.51754582;stroke-linecap:butt;stroke-linejoin:miter;stroke-miterlimit:4;stroke-dasharray:none;stroke-opacity:1" /><path
     id="path1075"
     d="M 54.140366,5.0877289 V 51.666851"
     style="fill:none;stroke:#6e6e6e;stroke-width:0.51754582;stroke-linecap:butt;stroke-linejoin:miter;stroke-miterlimit:4;stroke-dasharray:none;stroke-opacity:1" /><path
     id="path1077"
     d="M 52.070183,5.0877289 V 51.666851"
     style="fill:none;stroke:#6e6e6e;stroke-width:0.51754582;stroke-linecap:butt;stroke-linejoin:miter;stroke-miterlimit:4;stroke-dasharray:none;stroke-opacity:1" /><path
     id="path1079"
     d="M 49.999999,5.0877289 V 51.666851"
     style="fill:none;stroke:#6e6e6e;stroke-width:0.51754582;stroke-linecap:butt;stroke-linejoin:miter;stroke-miterlimit:4;stroke-dasharray:none;stroke-opacity:1" /><path
     id="path1065-2"
     d="M 37.5789,11.298279 V 45.456301"
     style="fill:none;stroke:#6e6e6e;stroke-width:0.51754582;stroke-linecap:butt;stroke-linejoin:miter;stroke-miterlimit:4;stroke-dasharray:none;stroke-opacity:1" /><path
     id="path1069-9"
     d="M 39.649084,9.2280952 V 48.561576"
     style="fill:none;stroke:#6e6e6e;stroke-width:0.51754582;stroke-linecap:butt;stroke-linejoin:miter;stroke-miterlimit:4;stroke-dasharray:none;stroke-opacity:1" /><path
     id="path1071-1"
     d="M 41.719267,7.157912 V 49.596667"
     style="fill:none;stroke:#6e6e6e;stroke-width:0.51754582;stroke-linecap:butt;stroke-linejoin:miter;stroke-miterlimit:4;stroke-dasharray:none;stroke-opacity:1" /><path
     id="path1073-2"
     d="M 43.78945,6.1228204 V 50.631759"
     style="fill:none;stroke:#6e6e6e;stroke-width:0.51754582;stroke-linecap:butt;stroke-linejoin:miter;stroke-miterlimit:4;stroke-dasharray:none;stroke-opacity:1" /><path
     id="path1075-7"
     d="M 45.859633,5.0877289 V 51.666851"
     style="fill:none;stroke:#6e6e6e;stroke-width:0.51754582;stroke-linecap:butt;stroke-linejoin:miter;stroke-miterlimit:4;stroke-dasharray:none;stroke-opacity:1" /><path
     id="path1077-0"
     d="M 47.929816,5.0877289 V 51.666851"
     style="fill:none;stroke:#6e6e6e;stroke-width:0.51754582;stroke-linecap:butt;stroke-linejoin:miter;stroke-miterlimit:4;stroke-dasharray:none;stroke-opacity:1" /><path
     id="path944-5"
     d="M 49.999999,2.433271 C 38.566694,2.433271 29,13 28.713893,28.37729 c 0.0092,8.039234 2.899705,14.12915 8.326652,20.370279 5.426947,6.24113 9.349223,14.898055 10.221528,23.621113 h 5.475852 C 53.610282,63.645109 57.532482,54.986707 62.959455,48.745547 68.386427,42.504387 71.276411,36.415811 71.286106,28.37729 71,13 61.433305,2.433271 49.999999,2.433271 Z m 0,4.6911631 c 9.718311,0 16.928815,8.9620519 16.928815,21.2528559 0,12.290804 -7.210504,21.670194 -16.928815,21.670194 -9.71831,0 -16.928813,-9.37939 -16.928813,-21.670194 0,-12.290804 7.210503,-21.2528559 16.928813,-21.2528559 z M 46,54.333871 c 0,0 1.939853,0.657801 4,0.666129 2,0 4,-0.666129 4,-0.666129 C 52,59 51,61 50,64 49,61 48,59 46,54.333871 Z"
     style="opacity:1;vector-effect:none;fill:#2b4d5d;fill-opacity:1;stroke:none;stroke-width:1.03509164;stroke-linecap:round;stroke-linejoin:round;stroke-miterlimit:4;stroke-dasharray:none;stroke-dashoffset:3.20000005;stroke-opacity:1" /><path
     id="path944"
     d="m 49.999999,3.0175457 c -11.433305,0 -20.701831,11.3539453 -20.701831,25.3597443 0.0092,8.039234 2.983172,14.12915 8.410119,20.370279 5.426947,6.24113 9.349223,14.898055 10.221529,23.621113 h 1.035092 2.070183 1.035092 c 0.872357,-8.723573 4.794557,-17.381975 10.22153,-23.623135 5.426972,-6.24116 8.400423,-12.329736 8.410118,-20.368257 0,-14.005799 -9.268526,-25.3597443 -20.701832,-25.3597443 z m 0,3.1052747 c 9.718311,0 17.596557,9.9636656 17.596557,22.2544696 0,12.290804 -7.878246,22.254469 -17.596557,22.254469 -9.71831,0 -17.596556,-9.963665 -17.596556,-22.254469 0,-12.290804 7.878246,-22.2544696 17.596556,-22.2544696 z M 43.924901,52.594794 c 1.967356,0.748924 4.014951,1.133912 6.075098,1.14224 2.052126,-9.63e-4 4.092732,-0.375699 6.054881,-1.111915 -2.917419,4.448568 -4.89329,8.875476 -6.054881,13.652292 -1.16422,-4.787632 -3.146799,-9.22386 -6.075098,-13.682617 z"
     style="opacity:1;vector-effect:none;fill:#58afd8;fill-opacity:1;stroke:none;stroke-width:1.03509164;stroke-linecap:round;stroke-linejoin:round;stroke-miterlimit:4;stroke-dasharray:none;stroke-dashoffset:3.20000005;stroke-opacity:1" /><path
     id="path925-6"
     d="m 47.929816,72.705756 h 4.140367 v 19.349176 2.902377 c -0.948648,1.052631 -3.218836,0.95673 -4.140367,0 v -2.902377 z"
     style="fill:#604c36;fill-opacity:1;stroke:none;stroke-width:1.00070393px;stroke-linecap:butt;stroke-linejoin:miter;stroke-opacity:1" /></svg>

<svg xmlns:dc="http://purl.org/dc/elements/1.1/" xmlns:cc="http://creativecommons.org/ns#" xmlns:rdf="http://www.w3.org/1999/02/22-rdf-syntax-ns#" xmlns="http://www.w3.org/2000/svg" version="1.0" width="100" height="100" xml:space="preserve"><metadata><rdf:RDF><cc:Work><dc:format>image/svg+xml</dc:format><dc:type rdf:resource="http://purl.org/dc/dcmitype/StillImage"/><dc:title/><dc:date>2021</dc:date><dc:creator><cc:Agent><dc:title>Timothée Giet</dc:title></cc:Agent></dc:creator><cc:license rdf:resource="http://creativecommons.org/licenses/by-sa/4.0/"/></cc:Work><cc:License rdf:about="http://creativecommons.org/licenses/by-sa/4.0/"><cc:permits rdf:resource="http://creativecommons.org/ns#Reproduction"/><cc:permits rdf:resource="http://creativecommons.org/ns#Distribution"/><cc:requires rdf:resource="http://creativecommons.org/ns#Notice"/><cc:requires rdf:resource="http://creativecommons.org/ns#Attribution"/><cc:permits rdf:resource="http://creativecommons.org/ns#DerivativeWorks"/><cc:requires rdf:resource="http://creativecommons.org/ns#ShareAlike"/></cc:License></rdf:RDF></metadata><path d="M47.262 72.294h5.476v23.879c-1.255 1.13-4.257 1.027-5.476 0V93.06z" style="fill:#3e3122;fill-opacity:1;stroke:none;stroke-width:1.19218898px;stroke-linecap:butt;stroke-linejoin:miter;stroke-opacity:1"/><path d="M38.614 10.263h23.807" style="fill:none;stroke:#6e6e6e;stroke-width:.51754582;stroke-linecap:butt;stroke-linejoin:miter;stroke-miterlimit:4;stroke-dasharray:none;stroke-opacity:1"/><path d="M36.544 12.333h26.912" style="fill:none;stroke:#6e6e6e;stroke-width:.51754582;stroke-linecap:butt;stroke-linejoin:miter;stroke-miterlimit:4;stroke-dasharray:none;stroke-opacity:1"/><path d="M34.474 14.404H64.49" style="fill:none;stroke:#6e6e6e;stroke-width:.51754582;stroke-linecap:butt;stroke-linejoin:miter;stroke-miterlimit:4;stroke-dasharray:none;stroke-opacity:1"/><path d="M33.439 16.474h32.087" style="fill:none;stroke:#6e6e6e;stroke-width:.51754582;stroke-linecap:butt;stroke-linejoin:miter;stroke-miterlimit:4;stroke-dasharray:none;stroke-opacity:1"/><path d="M32.403 18.544h35.194" style="fill:none;stroke:#6e6e6e;stroke-width:.51754582;stroke-linecap:butt;stroke-linejoin:miter;stroke-miterlimit:4;stroke-dasharray:none;stroke-opacity:1"/><path d="M31.368 20.614h36.229" style="fill:none;stroke:#6e6e6e;stroke-width:.51754582;stroke-linecap:butt;stroke-linejoin:miter;stroke-miterlimit:4;stroke-dasharray:none;stroke-opacity:1"/><path d="M31.368 22.684h37.264" style="fill:none;stroke:#6e6e6e;stroke-width:.51754582;stroke-linecap:butt;stroke-linejoin:miter;stroke-miterlimit:4;stroke-dasharray:none;stroke-opacity:1"/><path d="M31.368 24.754h37.264" style="fill:none;stroke:#6e6e6e;stroke-width:.51754582;stroke-linecap:butt;stroke-linejoin:miter;stroke-miterlimit:4;stroke-dasharray:none;stroke-opacity:1"/><path d="M31.368 26.825h37.264" style="fill:none;stroke:#6e6e6e;stroke-width:.51754582;stroke-linecap:butt;stroke-linejoin:miter;stroke-miterlimit:4;stroke-dasharray:none;stroke-opacity:1"/><path d="M31.368 28.895h37.264" style="fill:none;stroke:#6e6e6e;stroke-width:.51754582;stroke-linecap:butt;stroke-linejoin:miter;stroke-miterlimit:4;stroke-dasharray:none;stroke-opacity:1"/><path d="M31.368 30.965h37.264" style="fill:none;stroke:#6e6e6e;stroke-width:.51754582;stroke-linecap:butt;stroke-linejoin:miter;stroke-miterlimit:4;stroke-dasharray:none;stroke-opacity:1"/><path d="M31.368 33.035h37.264" style="fill:none;stroke:#6e6e6e;stroke-width:.51754582;stroke-linecap:butt;stroke-linejoin:miter;stroke-miterlimit:4;stroke-dasharray:none;stroke-opacity:1"/><path d="M31.368 35.105h37.264" style="fill:none;stroke:#6e6e6e;stroke-width:.51754582;stroke-linecap:butt;stroke-linejoin:miter;stroke-miterlimit:4;stroke-dasharray:none;stroke-opacity:1"/><path d="M32.403 37.176h35.194" style="fill:none;stroke:#6e6e6e;stroke-width:.51754582;stroke-linecap:butt;stroke-linejoin:miter;stroke-miterlimit:4;stroke-dasharray:none;stroke-opacity:1"/><path d="M33.439 39.246H66.56" style="fill:none;stroke:#6e6e6e;stroke-width:.51754582;stroke-linecap:butt;stroke-linejoin:miter;stroke-miterlimit:4;stroke-dasharray:none;stroke-opacity:1"/><path d="M34.474 41.316h31.052" style="fill:none;stroke:#6e6e6e;stroke-width:.51754582;stroke-linecap:butt;stroke-linejoin:miter;stroke-miterlimit:4;stroke-dasharray:none;stroke-opacity:1"/><path d="M35.509 43.386H64.49" style="fill:none;stroke:#6e6e6e;stroke-width:.51754582;stroke-linecap:butt;stroke-linejoin:miter;stroke-miterlimit:4;stroke-dasharray:none;stroke-opacity:1"/><path d="M36.544 45.456H62.42" style="fill:none;stroke:#6e6e6e;stroke-width:.51754582;stroke-linecap:butt;stroke-linejoin:miter;stroke-miterlimit:4;stroke-dasharray:none;stroke-opacity:1"/><path d="M62.421 11.298v34.158" style="fill:none;stroke:#6e6e6e;stroke-width:.51754582;stroke-linecap:butt;stroke-linejoin:miter;stroke-miterlimit:4;stroke-dasharray:none;stroke-opacity:1"/><path d="M60.35 9.228v39.334" style="fill:none;stroke:#6e6e6e;stroke-width:.51754582;stroke-linecap:butt;stroke-linejoin:miter;stroke-miterlimit:4;stroke-dasharray:none;stroke-opacity:1"/><path d="M58.28 7.158v42.439" style="fill:none;stroke:#6e6e6e;stroke-width:.51754582;stroke-linecap:butt;stroke-linejoin:miter;stroke-miterlimit:4;stroke-dasharray:none;stroke-opacity:1"/><path d="M56.21 6.123v44.509" style="fill:none;stroke:#6e6e6e;stroke-width:.51754582;stroke-linecap:butt;stroke-linejoin:miter;stroke-miterlimit:4;stroke-dasharray:none;stroke-opacity:1"/><path d="M54.14 5.088v46.579" style="fill:none;stroke:#6e6e6e;stroke-width:.51754582;stroke-linecap:butt;stroke-linejoin:miter;stroke-miterlimit:4;stroke-dasharray:none;stroke-opacity:1"/><path d="M52.07 5.088v46.579" style="fill:none;stroke:#6e6e6e;stroke-width:.51754582;stroke-linecap:butt;stroke-linejoin:miter;stroke-miterlimit:4;stroke-dasharray:none;stroke-opacity:1"/><path d="M50 5.088v46.579" style="fill:none;stroke:#6e6e6e;stroke-width:.51754582;stroke-linecap:butt;stroke-linejoin:miter;stroke-miterlimit:4;stroke-dasharray:none;stroke-opacity:1"/><path d="M37.579 11.298v34.158" style="fill:none;stroke:#6e6e6e;stroke-width:.51754582;stroke-linecap:butt;stroke-linejoin:miter;stroke-miterlimit:4;stroke-dasharray:none;stroke-opacity:1"/><path d="M39.65 9.228v39.334" style="fill:none;stroke:#6e6e6e;stroke-width:.51754582;stroke-linecap:butt;stroke-linejoin:miter;stroke-miterlimit:4;stroke-dasharray:none;stroke-opacity:1"/><path d="M41.72 7.158v42.439" style="fill:none;stroke:#6e6e6e;stroke-width:.51754582;stroke-linecap:butt;stroke-linejoin:miter;stroke-miterlimit:4;stroke-dasharray:none;stroke-opacity:1"/><path d="M43.79 6.123v44.509" style="fill:none;stroke:#6e6e6e;stroke-width:.51754582;stroke-linecap:butt;stroke-linejoin:miter;stroke-miterlimit:4;stroke-dasharray:none;stroke-opacity:1"/><path d="M45.86 5.088v46.579" style="fill:none;stroke:#6e6e6e;stroke-width:.51754582;stroke-linecap:butt;stroke-linejoin:miter;stroke-miterlimit:4;stroke-dasharray:none;stroke-opacity:1"/><path d="M47.93 5.088v46.579" style="fill:none;stroke:#6e6e6e;stroke-width:.51754582;stroke-linecap:butt;stroke-linejoin:miter;stroke-miterlimit:4;stroke-dasharray:none;stroke-opacity:1"/><path d="M50 2.433C38.567 2.433 29 13 28.714 28.377c.01 8.04 2.9 14.13 8.327 20.37 5.426 6.242 9.349 14.899 10.221 23.622h5.476c.872-8.724 4.794-17.382 10.221-23.623 5.427-6.242 8.317-12.33 8.327-20.369C71 13 61.433 2.433 50 2.433zm0 4.691c9.718 0 16.929 8.962 16.929 21.253S59.719 50.047 50 50.047c-9.718 0-16.929-9.379-16.929-21.67 0-12.29 7.21-21.253 16.929-21.253zm-4 47.21s1.94.658 4 .666c2 0 4-.666 4-.666C52 59 51 61 50 64c-1-3-2-5-4-9.666z" style="opacity:1;vector-effect:none;fill:#2b4d5d;fill-opacity:1;stroke:none;stroke-width:1.03509164;stroke-linecap:round;stroke-linejoin:round;stroke-miterlimit:4;stroke-dasharray:none;stroke-dashoffset:3.20000005;stroke-opacity:1"/><path d="M50 3.018c-11.433 0-20.702 11.353-20.702 25.36.01 8.039 2.983 14.128 8.41 20.37 5.427 6.24 9.35 14.898 10.222 23.62h4.14c.873-8.723 4.795-17.381 10.222-23.622 5.427-6.242 8.4-12.33 8.41-20.369 0-14.006-9.269-25.36-20.702-25.36zm0 3.105c9.718 0 17.597 9.963 17.597 22.254 0 12.291-7.879 22.255-17.597 22.255-9.718 0-17.597-9.964-17.597-22.255 0-12.29 7.879-22.254 17.597-22.254zm-6.075 46.472A17.236 17.236 0 0 0 50 53.737a17.223 17.223 0 0 0 6.055-1.112c-2.918 4.449-4.893 8.876-6.055 13.652-1.164-4.787-3.147-9.223-6.075-13.682z" style="opacity:1;vector-effect:none;fill:#58afd8;fill-opacity:1;stroke:none;stroke-width:1.03509164;stroke-linecap:round;stroke-linejoin:round;stroke-miterlimit:4;stroke-dasharray:none;stroke-dashoffset:3.20000005;stroke-opacity:1"/><path d="M47.93 72.706h4.14v22.251c-.948 1.053-3.219.957-4.14 0v-2.902z" style="fill:#604c36;fill-opacity:1;stroke:none;stroke-width:1.00070393px;stroke-linecap:butt;stroke-linejoin:miter;stroke-opacity:1"/></svg>
